actions/scalable/zoom-original.svg

<svg height="22" width="22" xmlns="http://www.w3.org/2000/svg" xmlns:sodipodi="http://sodipodi.sourceforge.net/DTD/sodipodi-0.dtd" xmlns:inkscape="http://www.inkscape.org/namespaces/inkscape">
 <g transform="matrix(1 0 0 1 -544.57 -742.93)">
  <path d="m547.57 745.93v1 3h1v-3h3v-1h-3z" fill="#4d4d4d"/>
  <path d="m5 5v12h12v-12h-12zm1 1h10v10h-10v-10z" fill="#4d4d4d" transform="matrix(1 0 0 1 544.57 742.93)"/>
  <path d="m562.57 757.93v3h-3v1h4v-1-3z" fill="#4d4d4d"/>
  <path d="m563.57 745.93v1 3h-1v-3h-3v-1h3z" fill="#4d4d4d"/>
  <path d="m548.57 757.93v3h3v1h-4v-1-3z" fill="#4d4d4d"/>
 </g>
</svg>

<?xml version="1.0" encoding="UTF-8" standalone="no"?>
<!-- Created with Inkscape (http://www.inkscape.org/) -->

<svg
   xmlns:dc="http://purl.org/dc/elements/1.1/"
   xmlns:cc="http://creativecommons.org/ns#"
   xmlns:rdf="http://www.w3.org/1999/02/22-rdf-syntax-ns#"
   xmlns:svg="http://www.w3.org/2000/svg"
   xmlns="http://www.w3.org/2000/svg"
   xmlns:sodipodi="http://sodipodi.sourceforge.net/DTD/sodipodi-0.dtd"
   xmlns:inkscape="http://www.inkscape.org/namespaces/inkscape"
   width="22"
   height="22"
   id="svg4355"
   version="1.1"
   inkscape:version="0.48+devel r"
   sodipodi:docname="zoom-original.svg">
  <defs
     id="defs4357" />
  <sodipodi:namedview
     id="base"
     pagecolor="#ffffff"
     bordercolor="#666666"
     borderopacity="1.0"
     inkscape:pageopacity="0.0"
     inkscape:pageshadow="2"
     inkscape:zoom="23.05398"
     inkscape:cx="5.862999"
     inkscape:cy="11.79776"
     inkscape:document-units="px"
     inkscape:current-layer="layer1"
     showgrid="true"
     width="0px"
     height="0px"
     fit-margin-top="0"
     fit-margin-left="0"
     fit-margin-right="0"
     fit-margin-bottom="0"
     inkscape:window-width="1366"
     inkscape:window-height="718"
     inkscape:window-x="-2"
     inkscape:window-y="23"
     inkscape:window-maximized="1"
     inkscape:showpageshadow="false">
    <inkscape:grid
       type="xygrid"
       id="grid4114" />
    <sodipodi:guide
       position="2.0000011,19.999996"
       orientation="18,0"
       id="guide4120" />
    <sodipodi:guide
       position="2.0000011,1.9999962"
       orientation="0,18"
       id="guide4122" />
    <sodipodi:guide
       position="20.000001,1.9999962"
       orientation="-18,0"
       id="guide4124" />
    <sodipodi:guide
       position="20.000001,19.999996"
       orientation="0,-18"
       id="guide4126" />
    <sodipodi:guide
       position="3.0000011,18.999996"
       orientation="16,0"
       id="guide4128" />
    <sodipodi:guide
       position="3.0000011,2.9999962"
       orientation="0,16"
       id="guide4130" />
    <sodipodi:guide
       position="19.000001,2.9999962"
       orientation="-16,0"
       id="guide4132" />
    <sodipodi:guide
       position="19.000001,18.999996"
       orientation="0,-16"
       id="guide4134" />
  </sodipodi:namedview>
  <metadata
     id="metadata4360">
    <rdf:RDF>
      <cc:Work
         rdf:about="">
        <dc:format>image/svg+xml</dc:format>
        <dc:type
           rdf:resource="http://purl.org/dc/dcmitype/StillImage" />
        <dc:title />
      </cc:Work>
    </rdf:RDF>
  </metadata>
  <g
     inkscape:label="Capa 1"
     inkscape:groupmode="layer"
     id="layer1"
     transform="translate(-544.57141,-742.93359)">
    <path
       style="opacity:1;fill:#666666;fill-opacity:1;stroke:none"
       d="m 547.57141,745.93359 0,1 0,3 1,0 0,-3 3,0 0,-1 -3,0 z"
       id="path4162"
       inkscape:connector-curvature="0"
       sodipodi:nodetypes="ccccccccc" />
    <path
       style="opacity:1;fill:#666666;fill-opacity:1;stroke:none"
       d="M 5 5 L 5 17 L 17 17 L 17 5 L 5 5 z M 6 6 L 16 6 L 16 16 L 6 16 L 6 6 z "
       transform="translate(544.57141,742.93359)"
       id="path4118" />
    <path
       style="opacity:1;fill:#666666;fill-opacity:1;stroke:none"
       d="m 562.57141,757.93359 0,3 -3,0 0,1 4,0 0,-1 0,-3 z"
       id="rect4134"
       inkscape:connector-curvature="0"
       sodipodi:nodetypes="cccccccc" />
    <path
       sodipodi:nodetypes="ccccccccc"
       inkscape:connector-curvature="0"
       id="path4170"
       d="m 563.57141,745.93359 0,1 0,3 -1,0 0,-3 -3,0 0,-1 3,0 z"
       style="opacity:1;fill:#666666;fill-opacity:1;stroke:none" />
    <path
       sodipodi:nodetypes="cccccccc"
       inkscape:connector-curvature="0"
       id="path4172"
       d="m 548.57141,757.93359 0,3 3,0 0,1 -4,0 0,-1 0,-3 z"
       style="opacity:1;fill:#666666;fill-opacity:1;stroke:none" />
  </g>
</svg>
